X: 95
T:Humors of Max, The
M:C|
L:1/8
C:Matt Molloy
R:reel
D:Matt Molloy: Shadows on Stone
Z:Devin McCabe
K:D
:~A3B AFDF|EGFD EDB,E|D2AB AFDF|~E3D EFGB|
!~A3B AFDF|EGFD EDB,E|D2AB AFDF|1~E3F D2dB:|2~E3F D2Bd|
!:~e3d e2ge|fede edBA|Beed e2ge|fedB A2Bd|
!~e3d e2ge|fede edBe|dfab afdf|~e3g fedB:|
